contributed-vectors/_3dlut_mobile.svg

<?xml version="1.0" encoding="UTF-8" standalone="no"?>
<svg
   xmlns:dc="http://purl.org/dc/elements/1.1/"
   xmlns:cc="http://creativecommons.org/ns#"
   xmlns:rdf="http://www.w3.org/1999/02/22-rdf-syntax-ns#"
   xmlns:svg="http://www.w3.org/2000/svg"
   xmlns="http://www.w3.org/2000/svg"
   xmlns:xlink="http://www.w3.org/1999/xlink"
   xmlns:sodipodi="http://sodipodi.sourceforge.net/DTD/sodipodi-0.dtd"
   xmlns:inkscape="http://www.inkscape.org/namespaces/inkscape"
   viewBox="0 0 192 192"
   version="1.1"
   id="svg16"
   sodipodi:docname="3dlut_mobile.svg"
   inkscape:version="0.92.4 (5da689c313, 2019-01-14)">
  <metadata
     id="metadata20">
    <rdf:RDF>
      <cc:Work
         rdf:about="">
        <dc:format>image/svg+xml</dc:format>
        <dc:type
           rdf:resource="http://purl.org/dc/dcmitype/StillImage" />
        <dc:title></dc:title>
      </cc:Work>
    </rdf:RDF>
  </metadata>
  <sodipodi:namedview
     pagecolor="#ffffff"
     bordercolor="#666666"
     borderopacity="1"
     objecttolerance="10"
     gridtolerance="10"
     guidetolerance="10"
     inkscape:pageopacity="0"
     inkscape:pageshadow="2"
     inkscape:window-width="1920"
     inkscape:window-height="1017"
     id="namedview18"
     showgrid="true"
     inkscape:zoom="1.7383042"
     inkscape:cx="137.58062"
     inkscape:cy="98.440681"
     inkscape:window-x="-8"
     inkscape:window-y="-8"
     inkscape:window-maximized="1"
     inkscape:current-layer="svg16">
    <inkscape:grid
       type="xygrid"
       id="grid827"
       spacingx="4"
       spacingy="4" />
  </sodipodi:namedview>
  <defs
     id="defs4">
    <linearGradient
       inkscape:collect="always"
       id="linearGradient863">
      <stop
         style="stop-color:#ba6561;stop-opacity:1"
         offset="0"
         id="stop859" />
      <stop
         id="stop873"
         offset="0.51851851"
         style="stop-color:#fd997e;stop-opacity:1;" />
      <stop
         id="stop871"
         offset="0.83333331"
         style="stop-color:#f8c18c;stop-opacity:1" />
      <stop
         style="stop-color:#f9de81;stop-opacity:1"
         offset="1"
         id="stop861" />
    </linearGradient>
    <style
       id="style2">.a{fill:none;stroke:#b1b5bd;stroke-linecap:round;stroke-linejoin:round;isolation:isolate;opacity:0.63;}</style>
    <linearGradient
       inkscape:collect="always"
       xlink:href="#linearGradient863"
       id="linearGradient865"
       x1="60"
       y1="32"
       x2="132"
       y2="140"
       gradientUnits="userSpaceOnUse" />
  </defs>
  <circle
     class="a"
     cx="96"
     cy="96"
     r="88"
     id="circle8"
     style="fill:#56595b;stroke:none;opacity:1" />
  <circle
     class="a"
     cx="96"
     cy="96"
     r="36.5"
     id="circle10" />
  <circle
     class="a"
     cx="89.8983"
     cy="89.8983"
     r="81.8983"
     id="circle8-5"
     style="opacity:1;isolation:isolate;fill:#83868c;stroke:none;stroke-width:0.93066257;stroke-linecap:round;stroke-linejoin:round" />
  <circle
     class="a"
     cx="88.067795"
     cy="88.067795"
     r="75.593216"
     id="circle8-5-1"
     style="opacity:1;isolation:isolate;fill:url(#linearGradient865);stroke:none;stroke-width:0.85901392;stroke-linecap:round;stroke-linejoin:round;fill-opacity:1" />
  <path
     style="opacity:0.25;vector-effect:none;fill:#ba6561;fill-opacity:1;fill-rule:evenodd;stroke:none;stroke-width:1;stroke-linecap:round;stroke-linejoin:round;stroke-miterlimit:4;stroke-dasharray:none;paint-order:stroke fill markers"
     d="M 84 12.619141 A 75.593216 75.593216 0 0 0 80 12.994141 L 80 26 L 64 26 L 64 16.507812 A 75.593216 75.593216 0 0 0 60 17.914062 L 60 26 L 45.068359 26 A 75.593216 75.593216 0 0 0 39.773438 30 L 40 30 L 40 46 L 25.300781 46 A 75.593216 75.593216 0 0 0 20 55.404297 L 20 66 L 15.78125 66 A 75.593216 75.593216 0 0 0 14.759766 70 L 20 70 L 20 86 L 12.578125 86 A 75.593216 75.593216 0 0 0 12.474609 88.068359 A 75.593216 75.593216 0 0 0 12.542969 90 L 20 90 L 20 106 L 14.714844 106 A 75.593216 75.593216 0 0 0 15.796875 110 L 20 110 L 20 120.79492 A 75.593216 75.593216 0 0 0 25.238281 130 L 40 130 L 40 146 L 39.521484 146 A 75.593216 75.593216 0 0 0 44.783203 150 L 60 150 L 60 158.19336 A 75.593216 75.593216 0 0 0 64 159.6543 L 64 150 L 80 150 L 80 163.20508 A 75.593216 75.593216 0 0 0 84 163.45703 L 84 150 L 100 150 L 100 162.67188 A 75.593216 75.593216 0 0 0 104 161.86914 L 104 150 L 120 150 L 120 156.49219 A 75.593216 75.593216 0 0 0 124 154.49414 L 124 150 L 131.25586 150 A 75.593216 75.593216 0 0 0 136.51562 146 L 124 146 L 124 130 L 140 130 L 140 142.93945 A 75.593216 75.593216 0 0 0 144 138.78906 L 144 130 L 150.91602 130 A 75.593216 75.593216 0 0 0 153.36914 126 L 144 126 L 144 110 L 160 110 L 160 111.1875 A 75.593216 75.593216 0 0 0 163.66016 88.068359 A 75.593216 75.593216 0 0 0 160 65.119141 L 160 66 L 144 66 L 144 50 L 153.26953 50 A 75.593216 75.593216 0 0 0 150.80273 46 L 144 46 L 144 37.34375 A 75.593216 75.593216 0 0 0 140 33.263672 L 140 46 L 124 46 L 124 30 L 136.4375 30 A 75.593216 75.593216 0 0 0 131.17383 26 L 124 26 L 124 21.580078 A 75.593216 75.593216 0 0 0 120 19.646484 L 120 26 L 104 26 L 104 14.214844 A 75.593216 75.593216 0 0 0 100 13.513672 L 100 26 L 84 26 L 84 12.619141 z M 44 30 L 60 30 L 60 46 L 44 46 L 44 30 z M 64 30 L 80 30 L 80 46 L 64 46 L 64 30 z M 84 30 L 100 30 L 100 46 L 84 46 L 84 30 z M 104 30 L 120 30 L 120 46 L 104 46 L 104 30 z M 24 50 L 40 50 L 40 66 L 24 66 L 24 50 z M 44 50 L 60 50 L 60 66 L 44 66 L 44 50 z M 64 50 L 80 50 L 80 66 L 64 66 L 64 50 z M 84 50 L 100 50 L 100 66 L 84 66 L 84 50 z M 104 50 L 120 50 L 120 66 L 104 66 L 104 50 z M 124 50 L 140 50 L 140 66 L 124 66 L 124 50 z M 24 70 L 40 70 L 40 86 L 24 86 L 24 70 z M 44 70 L 60 70 L 60 86 L 44 86 L 44 70 z M 64 70 L 80 70 L 80 86 L 64 86 L 64 70 z M 84 70 L 100 70 L 100 86 L 84 86 L 84 70 z M 104 70 L 120 70 L 120 86 L 104 86 L 104 70 z M 124 70 L 140 70 L 140 86 L 124 86 L 124 70 z M 144 70 L 160 70 L 160 86 L 144 86 L 144 70 z M 24 90 L 40 90 L 40 106 L 24 106 L 24 90 z M 44 90 L 60 90 L 60 106 L 44 106 L 44 90 z M 64 90 L 80 90 L 80 106 L 64 106 L 64 90 z M 84 90 L 100 90 L 100 106 L 84 106 L 84 90 z M 104 90 L 120 90 L 120 106 L 104 106 L 104 90 z M 124 90 L 140 90 L 140 106 L 124 106 L 124 90 z M 144 90 L 160 90 L 160 106 L 144 106 L 144 90 z M 24 110 L 40 110 L 40 126 L 24 126 L 24 110 z M 44 110 L 60 110 L 60 126 L 44 126 L 44 110 z M 64 110 L 80 110 L 80 126 L 64 126 L 64 110 z M 84 110 L 100 110 L 100 126 L 84 126 L 84 110 z M 104 110 L 120 110 L 120 126 L 104 126 L 104 110 z M 124 110 L 140 110 L 140 126 L 124 126 L 124 110 z M 44 130 L 60 130 L 60 146 L 44 146 L 44 130 z M 64 130 L 80 130 L 80 146 L 64 146 L 64 130 z M 84 130 L 100 130 L 100 146 L 84 146 L 84 130 z M 104 130 L 120 130 L 120 146 L 104 146 L 104 130 z "
     id="rect881" />
  <text
     xml:space="preserve"
     style="font-style:normal;font-variant:normal;font-weight:normal;font-stretch:normal;font-size:47.73592758px;line-height:1.25;font-family:Now;-inkscape-font-specification:Now;letter-spacing:0px;word-spacing:0px;fill:#ffffff;fill-opacity:1;stroke:none;stroke-width:1.19339812"
     x="47.609444"
     y="108.17482"
     id="text869"><tspan
       sodipodi:role="line"
       id="tspan867"
       x="47.609444"
       y="108.17482"
       style="font-style:normal;font-variant:normal;font-weight:900;font-stretch:normal;font-family:Now;-inkscape-font-specification:'Now Heavy';fill:#ffffff;stroke-width:1.19339812">3DL</tspan></text>
</svg>

<svg xmlns="http://www.w3.org/2000/svg" xmlns:xlink="http://www.w3.org/1999/xlink" id="svg16" version="1.1" viewBox="0 0 192 192"><defs id="defs4"><linearGradient id="linearGradient863"><stop id="stop859" offset="0" style="stop-color:#ba6561;stop-opacity:1"/><stop id="stop873" offset=".519" style="stop-color:#fd997e;stop-opacity:1"/><stop id="stop871" offset=".833" style="stop-color:#f8c18c;stop-opacity:1"/><stop id="stop861" offset="1" style="stop-color:#f9de81;stop-opacity:1"/></linearGradient><linearGradient xlink:href="#linearGradient863" id="linearGradient865" x1="60" x2="132" y1="32" y2="140" gradientUnits="userSpaceOnUse"/><style id="style2">.a{fill:none;stroke:#b1b5bd;stroke-linecap:round;stroke-linejoin:round;isolation:isolate;opacity:.63}</style></defs><circle id="circle8" cx="96" cy="96" r="88" class="a" style="fill:#56595b;stroke:none;opacity:1"/><circle id="circle10" cx="96" cy="96" r="36.5" class="a"/><circle id="circle8-5" cx="89.898" cy="89.898" r="81.898" class="a" style="opacity:1;isolation:isolate;fill:#83868c;stroke:none;stroke-width:.93066257;stroke-linecap:round;stroke-linejoin:round"/><circle id="circle8-5-1" cx="88.068" cy="88.068" r="75.593" class="a" style="opacity:1;isolation:isolate;fill:url(#linearGradient865);stroke:none;stroke-width:.85901392;stroke-linecap:round;stroke-linejoin:round;fill-opacity:1"/><path id="rect881" d="M84 12.62a75.593 75.593 0 0 0-4 .374V26H64v-9.492a75.593 75.593 0 0 0-4 1.406V26H45.068a75.593 75.593 0 0 0-5.295 4H40v16H25.3a75.593 75.593 0 0 0-5.3 9.404V66h-4.219a75.593 75.593 0 0 0-1.021 4H20v16h-7.422a75.593 75.593 0 0 0-.103 2.068A75.593 75.593 0 0 0 12.543 90H20v16h-5.285a75.593 75.593 0 0 0 1.082 4H20v10.795A75.593 75.593 0 0 0 25.238 130H40v16h-.479a75.593 75.593 0 0 0 5.262 4H60v8.193a75.593 75.593 0 0 0 4 1.461V150h16v13.205a75.593 75.593 0 0 0 4 .252V150h16v12.672a75.593 75.593 0 0 0 4-.803V150h16v6.492a75.593 75.593 0 0 0 4-1.998V150h7.256a75.593 75.593 0 0 0 5.26-4H124v-16h16v12.94a75.593 75.593 0 0 0 4-4.15V130h6.916a75.593 75.593 0 0 0 2.453-4H144v-16h16v1.188a75.593 75.593 0 0 0 3.66-23.12A75.593 75.593 0 0 0 160 65.12V66h-16V50h9.27a75.593 75.593 0 0 0-2.467-4H144v-8.656a75.593 75.593 0 0 0-4-4.08V46h-16V30h12.438a75.593 75.593 0 0 0-5.264-4H124v-4.42a75.593 75.593 0 0 0-4-1.934V26h-16V14.215a75.593 75.593 0 0 0-4-.701V26H84V12.62zM44 30h16v16H44V30zm20 0h16v16H64V30zm20 0h16v16H84V30zm20 0h16v16h-16V30zM24 50h16v16H24V50zm20 0h16v16H44V50zm20 0h16v16H64V50zm20 0h16v16H84V50zm20 0h16v16h-16V50zm20 0h16v16h-16V50zM24 70h16v16H24V70zm20 0h16v16H44V70zm20 0h16v16H64V70zm20 0h16v16H84V70zm20 0h16v16h-16V70zm20 0h16v16h-16V70zm20 0h16v16h-16V70zM24 90h16v16H24V90zm20 0h16v16H44V90zm20 0h16v16H64V90zm20 0h16v16H84V90zm20 0h16v16h-16V90zm20 0h16v16h-16V90zm20 0h16v16h-16V90zM24 110h16v16H24v-16zm20 0h16v16H44v-16zm20 0h16v16H64v-16zm20 0h16v16H84v-16zm20 0h16v16h-16v-16zm20 0h16v16h-16v-16zm-80 20h16v16H44v-16zm20 0h16v16H64v-16zm20 0h16v16H84v-16zm20 0h16v16h-16v-16z" style="opacity:.25;vector-effect:none;fill:#ba6561;fill-opacity:1;fill-rule:evenodd;stroke:none;stroke-width:1;stroke-linecap:round;stroke-linejoin:round;stroke-miterlimit:4;stroke-dasharray:none;paint-order:stroke fill markers"/><text xml:space="preserve" id="text869" x="47.609" y="108.175" style="font-style:normal;font-variant:normal;font-weight:400;font-stretch:normal;font-size:47.73592758px;line-height:1.25;font-family:Now;-inkscape-font-specification:Now;letter-spacing:0;word-spacing:0;fill:#fff;fill-opacity:1;stroke:none;stroke-width:1.19339812"><tspan id="tspan867" x="47.609" y="108.175" style="font-style:normal;font-variant:normal;font-weight:900;font-stretch:normal;font-family:Now;-inkscape-font-specification:&quot;Now Heavy&quot;;fill:#fff;stroke-width:1.19339812">3DL</tspan></text></svg>
